assets/valentine-grey/ValentineGrey13.svg

<svg xmlns="http://www.w3.org/2000/svg" data-name="Layer 1" viewBox="0 0 128 128"><path d="M64 67.506a7.809 7.809 0 00-10.321 11.575 1.254 1.254 0 00.152.184l9.285 9.285a1.25 1.25 0 001.768 0l9.285-9.285a1.252 1.252 0 00.15-.182A7.809 7.809 0 0064 67.506zm8.229 2.646a5.293 5.293 0 01.131 7.37 1.228 1.228 0 00-.083.1L64 85.9l-8.23-8.23-.047-.047a1.587 1.587 0 00-.084-.1 5.308 5.308 0 017.508-7.5 1.249 1.249 0 001.7 0 5.291 5.291 0 017.382.129z"/><path d="M86.79 58.75A1.25 1.25 0 0085.54 60v38.664H42.46v-43.08h44.33a1.25 1.25 0 000-2.5h-8.416V41.21a14.374 14.374 0 00-28.748 0v11.874H41.21a1.25 1.25 0 00-1.25 1.25v45.58a1.25 1.25 0 001.25 1.25h45.58a1.25 1.25 0 001.25-1.25V60a1.25 1.25 0 00-1.25-1.25zM52.126 41.21a11.874 11.874 0 0123.748 0v11.874H52.126z"/></svg>

<svg id="Layer_1" data-name="Layer 1" xmlns="http://www.w3.org/2000/svg" viewBox="0 0 128 128"><title>VALENTINE LOCK</title><path d="M64,67.506A7.809,7.809,0,0,0,53.679,79.081a1.254,1.254,0,0,0,.152.184l9.285,9.285a1.25,1.25,0,0,0,1.768,0l9.285-9.285a1.252,1.252,0,0,0,.15-.182A7.809,7.809,0,0,0,64,67.506Zm8.229,2.646a5.293,5.293,0,0,1,.131,7.37,1.228,1.228,0,0,0-.083.1L64,85.9l-8.23-8.23-.047-.047c-.026-.034-.055-.068-.084-.1a5.308,5.308,0,0,1,7.508-7.5,1.249,1.249,0,0,0,1.7,0A5.291,5.291,0,0,1,72.229,70.152Z"/><path d="M86.79,58.75A1.25,1.25,0,0,0,85.54,60V98.664H42.46V55.584H86.79a1.25,1.25,0,0,0,0-2.5H78.374V41.21a14.374,14.374,0,0,0-28.748,0V53.084H41.21a1.25,1.25,0,0,0-1.25,1.25V99.914a1.25,1.25,0,0,0,1.25,1.25H86.79a1.25,1.25,0,0,0,1.25-1.25V60A1.25,1.25,0,0,0,86.79,58.75ZM52.126,41.21a11.874,11.874,0,0,1,23.748,0V53.084H52.126Z"/></svg>
